X: 1620
T: Ruy-i Alemdir
C: Dellalzâde İsmail Efendi
O: Turkey
F: http://compmusic.upf.edu/node/140
N: acemasiran--sarki--devrihindi--ruy-i_alemdir--dellalzade_haci_ismail_efendi
N: makam= acemasiran
N: form= sarki
N: usul= devrihindi = 7/4
M: 7/4
L: 1/16
K: C _B   
Q: 1/4=120
%%MIDI tuningsystem comma53
F2 G2 A2 BA GB AB AG  | F2 G2 A2 BA GB A3g  | \
w:   |   | 
f_e ed dc ce dc BA ^GA  | 
w:   | 
_ed c2 BA AG GF F4  | F2 G2 A2 BA GB AB AG  | 
w:   |   | 
F2 G2 A2 BA GB A3g  | f_e ed dc ce dc BA ^GA  | 
w:   |   | 
_ed c2 BA AG GF F4  | f4 a2 g2 gf f3e  | \
w:   |   | 
e4 ed gf ed c4  | 
w:   | 
de d2 e2 f4 ga ag  | gf ed e2 f3c de f2  | \
w:   |   | 
c4 f2 f3_e e3d  | 
w:   | 
d3c c2 c_e dc (3BA^G A2  | B4 d2 c3B AG F2  | \
w:   |   | 
GB AG FE FG AB cd ef  | 
w:   | 
c4 f2 f3_e e3d  | d3c c2 c_e dc (3BA^G A2  | \
w:   |   | 
B4 d2 c3B AG F2  | 
w:   | 
AB AG FE F3g fg a2  | f4 g2 a4 ac' a2  | \
w:   |   | 
a3g g2 ga ag fe f2  | 
w:   | 
e4 e2 e3d _ed c2  | de d2 e2 f3c de f2  | \
w:   |   | 
c4 f2 f3_e e3d  | 
w:   | 
d3c c2 c_e dc (3BA^G A2  | B4 d2 c3B AG F2  | \
w:   |   | 
GB AG FE FG AB cd ef  | 
w:   | 
c4 f2 f3_e e3d  | d3c c2 c_e dc (3BA^G A2  | \
w:   |   | 
B4 d2 c3B AG F2  | 
w:   | 
AB AG FE F8  | |


